icons/tokens/0x7F83935EcFe4729c4Ea592Ab2bC1A32588409797/logo.svg

<svg width="32" height="32" viewBox="0 0 32 32" fill="none" xmlns="http://www.w3.org/2000/svg">
<path fill-rule="evenodd" clip-rule="evenodd" d="M32 15.9999C32 13.9059 31.5834 11.8118 30.7821 9.87706C29.9805 7.94234 28.7942 6.16698 27.3136 4.68634C25.833 3.20538 24.0576 2.01946 22.1229 1.21786C20.1882 0.416579 18.0941 -6.10352e-05 16 -6.10352e-05C13.9059 -6.10352e-05 11.8115 0.416579 9.8768 1.21786C7.94208 2.01946 6.16704 3.20538 4.68608 4.68634C3.20544 6.16698 2.0192 7.94234 1.21792 9.87706C0.41632 11.8118 0 13.9059 0 15.9999C0 18.094 0.41632 20.1881 1.21792 22.1228C2.0192 24.0575 3.20544 25.8329 4.68608 27.3139C6.16704 28.7945 7.94208 29.9807 9.8768 30.782C11.8115 31.5833 13.9059 31.9999 16 31.9999C18.0941 31.9999 20.1882 31.5833 22.1229 30.782C24.0576 29.9807 25.833 28.7945 27.3136 27.3139C28.7942 25.8329 29.9805 24.0575 30.7821 22.1228C31.5834 20.1881 32 18.094 32 15.9999Z" fill="white"/>
<path fill-rule="evenodd" clip-rule="evenodd" d="M11.8547 3.38361C13.3453 2.89369 14.9382 2.66969 16.5162 2.73017C18.0944 2.79065 19.6579 3.13593 21.113 3.74393C22.5683 4.35193 23.9152 5.22297 25.0675 6.29753C26.5917 7.71929 27.775 9.49753 28.4848 11.4867C29.1949 13.4761 29.4314 15.6764 29.1574 17.7711C28.8838 19.8659 28.0998 21.8553 26.9139 23.566C25.728 25.2767 24.1398 26.7084 22.2746 27.7004C20.4093 28.6921 18.2662 29.2438 16.1539 29.2758C14.0416 29.3078 11.9597 28.8204 10.095 27.895C8.23073 26.9695 6.58337 25.6063 5.33249 23.9036C4.08161 22.2009 3.22721 20.1587 2.88801 18.0748C2.54881 15.9907 2.72481 13.8646 3.37473 11.8812C3.86593 10.3817 4.62817 8.96409 5.6048 7.73561H4.12033V5.28185H9.93696V10.7135H7.48321V9.22937C6.68321 10.2355 6.05857 11.3967 5.65633 12.6255C5.12417 14.2511 4.98081 15.9951 5.25633 17.6969C5.59873 19.8137 6.58881 21.8649 8.06657 23.4457C9.83425 25.3363 12.2995 26.5542 14.8659 26.8207C17.432 27.0873 20.0992 26.4028 22.2173 24.9286C24.3354 23.4543 25.905 21.1903 26.5421 18.6899C27.1792 16.1894 26.8838 13.4524 25.735 11.142C24.5862 8.83161 22.5837 6.94841 20.1891 5.95897C17.7946 4.96921 15.0077 4.87385 12.6038 5.66361L11.8547 3.38361Z" fill="url(#paint0_linear)"/>
<path fill-rule="evenodd" clip-rule="evenodd" d="M24 16C24 11.5858 20.4142 8 16 8C11.5858 8 8 11.5858 8 16C8 20.4142 11.5858 24 16 24C20.4142 24 24 20.4142 24 16Z" fill="#818181"/>
<path fill-rule="evenodd" clip-rule="evenodd" d="M16 8C20.4142 8 24 11.5858 24 16C24 20.4142 20.4142 24 16 24C11.5858 24 8 20.4142 8 16C8 11.5858 11.5858 8 16 8ZM16 8.5904C20.0885 8.5904 23.4096 11.9115 23.4096 16C23.4096 20.0885 20.0885 23.4096 16 23.4096C11.9115 23.4096 8.59041 20.0885 8.59041 16C8.59041 11.9115 11.9115 8.5904 16 8.5904Z" fill="black"/>
<path fill-rule="evenodd" clip-rule="evenodd" d="M22.4222 16C22.4222 12.4563 19.5437 9.57776 16 9.57776C12.4563 9.57776 9.57776 12.4563 9.57776 16C9.57776 19.5437 12.4563 22.4222 16 22.4222C19.5437 22.4222 22.4222 19.5437 22.4222 16Z" stroke="white" stroke-opacity="0.65" stroke-width="0.5"/>
<path fill-rule="evenodd" clip-rule="evenodd" d="M21.1622 16C21.1622 13.1515 18.8485 10.8378 16 10.8378C13.1515 10.8378 10.8378 13.1515 10.8378 16C10.8378 18.8485 13.1515 21.1622 16 21.1622C18.8485 21.1622 21.1622 18.8485 21.1622 16Z" stroke="white" stroke-opacity="0.4" stroke-width="0.5"/>
<path fill-rule="evenodd" clip-rule="evenodd" d="M20.0226 16C20.0226 13.7805 18.2195 11.9774 16 11.9774C13.7805 11.9774 11.9774 13.7805 11.9774 16C11.9774 18.2195 13.7805 20.0226 16 20.0226C18.2195 20.0226 20.0226 18.2195 20.0226 16Z" stroke="white" stroke-opacity="0.25" stroke-width="0.5"/>
<path fill-rule="evenodd" clip-rule="evenodd" d="M19.3899 14.905C19.5427 13.8813 18.7642 13.3318 17.6992 12.9637L18.0447 11.5784L17.2011 11.3682L16.8643 12.7173C16.6429 12.6622 16.4152 12.6098 16.1887 12.5584L16.5267 11.2006L15.6843 10.9902L15.3378 12.3758L15.2521 12.3559L15.2521 12.3559C15.0985 12.3203 14.9473 12.2852 14.7995 12.2493L14.8008 12.2442L13.6368 11.9539L13.4128 12.855C13.4442 12.8622 14.0386 12.999 14.0248 13.0077C14.3663 13.0928 14.4291 13.3194 14.4189 13.4981L13.4715 17.2954C13.4301 17.399 13.3239 17.5546 13.0848 17.4955C13.0938 17.508 12.5027 17.351 12.4715 17.3427L12.0525 18.3077L13.1511 18.5819C13.2656 18.6105 13.3788 18.6401 13.4908 18.6694C13.5786 18.6923 13.6656 18.715 13.7519 18.737L13.4029 20.1387L14.2463 20.3488L14.5915 18.9622C14.8219 19.0248 15.045 19.0824 15.2637 19.1362L14.9197 20.5168L15.7632 20.7269L16.1123 19.3278C17.5503 19.6005 18.6328 19.4906 19.0885 18.1888C19.4551 17.1413 19.0696 16.537 18.3125 16.1426C18.8642 16.0163 19.2784 15.6533 19.3899 14.905ZM17.4626 17.607C17.2228 18.5686 15.7202 18.172 15.0314 17.9902C14.969 17.9737 14.9133 17.959 14.8658 17.9472L15.3288 16.0901C15.3867 16.1045 15.4575 16.1204 15.5377 16.1384C16.2503 16.2982 17.7067 16.6249 17.4626 17.607ZM15.6793 15.2752C16.2526 15.4285 17.505 15.7633 17.7231 14.8899C17.9456 13.9956 16.7292 13.7261 16.1348 13.5944C16.0679 13.5796 16.009 13.5666 15.9608 13.5546L15.5415 15.239C15.581 15.2489 15.6273 15.2613 15.6793 15.2752Z" fill="white"/>
<defs>
<linearGradient id="paint0_linear" x1="2.04343" y1="13.297" x2="15.2222" y2="29.5764" gradientUnits="userSpaceOnUse">
<stop stop-color="#004CFF"/>
<stop offset="0.252131" stop-color="#00E0FB"/>
<stop offset="0.505709" stop-color="#87FF70"/>
<stop offset="0.755054" stop-color="#F8F500"/>
<stop offset="1" stop-color="#FF1A00"/>
</linearGradient>
</defs>
</svg>

<svg fill="none" viewBox="0 0 32 32"><path fill="#fff" fill-rule="evenodd" d="M32 16c0-2.094-.417-4.188-1.218-6.123a16.058 16.058 0 00-3.468-5.19 16.051 16.051 0 00-5.191-3.47A16.054 16.054 0 0016 0c-2.094 0-4.188.417-6.123 1.218a16.055 16.055 0 00-5.19 3.468 16.05 16.05 0 00-3.47 5.191A16.049 16.049 0 000 16c0 2.094.416 4.188 1.218 6.123a16.056 16.056 0 003.468 5.19 16.055 16.055 0 005.19 3.469A16.056 16.056 0 0016 32c2.094 0 4.188-.417 6.123-1.218a16.051 16.051 0 005.19-3.468 16.063 16.063 0 003.47-5.191A16.054 16.054 0 0032 16z" clip-rule="evenodd"/><path fill="url(#paint0_linear)" fill-rule="evenodd" d="M11.855 3.384a13.267 13.267 0 0113.213 2.914 13.155 13.155 0 013.417 5.189c.71 1.99.946 4.19.672 6.284a13.194 13.194 0 01-2.243 5.795 13.207 13.207 0 01-4.64 4.134 13.622 13.622 0 01-6.12 1.576 13.207 13.207 0 01-6.059-1.381 13.19 13.19 0 01-4.763-3.991 13.662 13.662 0 01-2.444-5.83 13.13 13.13 0 01.487-6.193 13.392 13.392 0 012.23-4.145H4.12V5.282h5.817v5.431H7.483V9.23a10.961 10.961 0 00-1.827 3.397 10.787 10.787 0 00-.4 5.07 11.107 11.107 0 002.81 5.75 10.952 10.952 0 006.8 3.375 11.023 11.023 0 007.351-1.892 10.999 10.999 0 004.325-6.24c.637-2.5.342-5.237-.807-7.547a10.919 10.919 0 00-5.546-5.183c-2.394-.99-5.181-1.085-7.585-.295l-.75-2.28z" clip-rule="evenodd"/><path fill="#818181" fill-rule="evenodd" d="M24 16c0-4.414-3.586-8-8-8s-8 3.586-8 8 3.586 8 8 8 8-3.586 8-8z" clip-rule="evenodd"/><path fill="#000" fill-rule="evenodd" d="M16 8c4.414 0 8 3.586 8 8s-3.586 8-8 8-8-3.586-8-8 3.586-8 8-8zm0 .59A7.414 7.414 0 0123.41 16 7.414 7.414 0 0116 23.41 7.414 7.414 0 018.59 16 7.414 7.414 0 0116 8.59z" clip-rule="evenodd"/><path stroke="#fff" stroke-opacity=".65" stroke-width=".5" d="M22.422 16A6.426 6.426 0 0016 9.578 6.426 6.426 0 009.578 16 6.426 6.426 0 0016 22.422 6.426 6.426 0 0022.422 16z" clip-rule="evenodd"/><path stroke="#fff" stroke-opacity=".4" stroke-width=".5" d="M21.162 16A5.165 5.165 0 0016 10.838 5.165 5.165 0 0010.838 16 5.165 5.165 0 0016 21.162 5.165 5.165 0 0021.162 16z" clip-rule="evenodd"/><path stroke="#fff" stroke-opacity=".25" stroke-width=".5" d="M20.023 16A4.025 4.025 0 0016 11.977 4.025 4.025 0 0011.977 16 4.025 4.025 0 0016 20.023 4.025 4.025 0 0020.023 16z" clip-rule="evenodd"/><path fill="#fff" fill-rule="evenodd" d="M19.39 14.905c.153-1.024-.626-1.573-1.69-1.941l.345-1.386-.844-.21-.337 1.35c-.221-.056-.449-.108-.675-.16l.338-1.357-.843-.21-.346 1.385-.086-.02c-.154-.036-.305-.07-.453-.107l.002-.005-1.164-.29-.224.901c.031.007.626.144.612.153.341.085.404.311.394.49l-.947 3.797c-.042.104-.148.26-.387.2.009.013-.582-.144-.614-.152l-.418.965 1.098.274c.115.028.228.058.34.087l.26.068-.348 1.402.843.21.345-1.387c.23.063.454.12.673.174l-.344 1.38.843.21.35-1.398c1.437.273 2.52.163 2.976-1.14.366-1.047-.02-1.651-.776-2.045.551-.127.965-.49 1.077-1.238zm-1.927 2.702c-.24.962-1.743.565-2.432.383a12.074 12.074 0 00-.165-.043l.463-1.857c.058.015.128.03.209.048.712.16 2.169.487 1.925 1.469zm-1.784-2.332c.574.153 1.826.488 2.044-.385.223-.894-.994-1.164-1.588-1.296a3.218 3.218 0 01-.174-.04l-.42 1.685.138.036z" clip-rule="evenodd"/><defs><linearGradient id="paint0_linear" x1="2.043" x2="15.222" y1="13.297" y2="29.576" gradientUnits="userSpaceOnUse"><stop stop-color="#004CFF"/><stop offset=".252" stop-color="#00E0FB"/><stop offset=".506" stop-color="#87FF70"/><stop offset=".755" stop-color="#F8F500"/><stop offset="1" stop-color="#FF1A00"/></linearGradient></defs></svg>
